X: 31
T: NUMBER ONE
B: "Old English Country Dances", Frank Kidson ed., William Reeves pub., London 1890
Z: 2010-9-26 John Chambers <jc:trillian.mit.edu>
M: C
L: 1/8
K: G
GA |\
B>ABG DEGA | B2G2 G2Bd | e>fge dBAG | E2A2 A2GA |
B>ABG DEGA | B>ABc defd | e>fge dBAB | G2E2 E2 :|
|: ef |\
gfge dBAB | gfga g/a/baf | ageg bagf | e2a2 a2ga |
bagf efge | dBg>e dBAB | efge dBAB | G2E2 E2 :|


%%sep 1 1 500

%%sep 1 1 500

